X:230
T: Boney Hilander
N: O'Farrell's Pocket Companion v.3 (Sky ed. p.112)
N: "Irish" (?)
N: Relative of "Leg of the Duck"
M: 6/8
R: jig
L: 1/8
Q: 320
K: G
c|BGG AGG| BGG AGG| EAA A2B| EAA A2c|
BGG AGG| BGG FED| DGG G2A | DGG G2 :|
c|Bcd ABc| Bcd AGE| EAA A2B| EAA A2c|
Bcd ABc| BAG AGE| DGG G2A| DGG G2 :|
